Newaita-dark/apps/24/preferences-desktop-online-accounts.svg

<?xml version="1.0" encoding="UTF-8"?>
<svg xmlns="http://www.w3.org/2000/svg" xmlns:xlink="http://www.w3.org/1999/xlink" width="24pt" height="24pt" viewBox="0 0 24 24" version="1.1">
<defs>
<linearGradient id="linear0" gradientUnits="userSpaceOnUse" x1="254" y1="233.5" x2="254" y2="254.666672" gradientTransform="matrix(0.0468795,0,0,0.0468795,-0.0000028613,10.079089)">
<stop offset="0" style="stop-color:rgb(0%,0%,0%);stop-opacity:0.27451;"/>
<stop offset="1" style="stop-color:rgb(0%,0%,0%);stop-opacity:0;"/>
</linearGradient>
<radialGradient id="radial0" gradientUnits="userSpaceOnUse" cx="450.908936" cy="189.579361" fx="450.908936" fy="189.579361" r="21.166656" gradientTransform="matrix(0.000000130628,-0.0585994,-0.105479,-0.0000000761539,36.617284,47.696499)">
<stop offset="0" style="stop-color:rgb(0%,0%,0%);stop-opacity:0.313725;"/>
<stop offset="0.222222" style="stop-color:rgb(0%,0%,0%);stop-opacity:0.27451;"/>
<stop offset="1" style="stop-color:rgb(0%,0%,0%);stop-opacity:0;"/>
</radialGradient>
<radialGradient id="radial1" gradientUnits="userSpaceOnUse" cx="450.908936" cy="189.579361" fx="450.908936" fy="189.579361" r="21.166656" gradientTransform="matrix(-0.000000130628,0.0585994,0.105479,0.0000000761539,-13.298649,-5.645609)">
<stop offset="0" style="stop-color:rgb(0%,0%,0%);stop-opacity:0.313725;"/>
<stop offset="0.222222" style="stop-color:rgb(0%,0%,0%);stop-opacity:0.27451;"/>
<stop offset="1" style="stop-color:rgb(0%,0%,0%);stop-opacity:0;"/>
</radialGradient>
<radialGradient id="radial2" gradientUnits="userSpaceOnUse" cx="450.908936" cy="189.579361" fx="450.908936" fy="189.579361" r="21.166656" gradientTransform="matrix(-0.000000130628,-0.0585994,0.105479,-0.0000000761539,-13.298649,47.696499)">
<stop offset="0" style="stop-color:rgb(0%,0%,0%);stop-opacity:0.313725;"/>
<stop offset="0.222222" style="stop-color:rgb(0%,0%,0%);stop-opacity:0.27451;"/>
<stop offset="1" style="stop-color:rgb(0%,0%,0%);stop-opacity:0;"/>
</radialGradient>
<radialGradient id="radial3" gradientUnits="userSpaceOnUse" cx="450.908936" cy="189.579361" fx="450.908936" fy="189.579361" r="21.166656" gradientTransform="matrix(0.000000130628,0.0585994,-0.105479,0.0000000761539,36.617282,-5.64561)">
<stop offset="0" style="stop-color:rgb(0%,0%,0%);stop-opacity:0.313725;"/>
<stop offset="0.222222" style="stop-color:rgb(0%,0%,0%);stop-opacity:0.27451;"/>
<stop offset="1" style="stop-color:rgb(0%,0%,0%);stop-opacity:0;"/>
</radialGradient>
<linearGradient id="linear1" gradientUnits="userSpaceOnUse" x1="960" y1="1695.118164" x2="960" y2="175.118118" gradientTransform="matrix(0.0124035,0,0,0.0124035,0,0)">
<stop offset="0" style="stop-color:rgb(14.901961%,77.647059%,85.490196%);stop-opacity:1;"/>
<stop offset="1" style="stop-color:rgb(30.196078%,81.568627%,88.235294%);stop-opacity:1;"/>
</linearGradient>
</defs>
<g id="surface1">
<path style=" stroke:none;fill-rule:nonzero;fill:url(#linear0);" d="M 6.449219 21.027344 L 16.867188 21.027344 L 16.867188 22.019531 L 6.449219 22.019531 Z M 6.449219 21.027344 "/>
<path style=" stroke:none;fill-rule:nonzero;fill:url(#radial0);" d="M 16.867188 21.027344 L 18.851562 21.027344 L 18.851562 20.03125 L 16.867188 20.03125 Z M 16.867188 21.027344 "/>
<path style=" stroke:none;fill-rule:nonzero;fill:url(#radial1);" d="M 6.449219 21.027344 L 4.464844 21.027344 L 4.464844 22.019531 L 6.449219 22.019531 Z M 6.449219 21.027344 "/>
<path style=" stroke:none;fill-rule:nonzero;fill:url(#radial2);" d="M 6.449219 21.027344 L 4.464844 21.027344 L 4.464844 20.03125 L 6.449219 20.03125 Z M 6.449219 21.027344 "/>
<path style=" stroke:none;fill-rule:nonzero;fill:url(#radial3);" d="M 16.867188 21.027344 L 18.851562 21.027344 L 18.851562 22.019531 L 16.867188 22.019531 Z M 16.867188 21.027344 "/>
<path style=" stroke:none;fill-rule:nonzero;fill:url(#linear1);" d="M 11.90625 2.171875 C 9.433594 2.171875 7.441406 4.164062 7.441406 6.636719 C 7.441406 9.109375 9.433594 11.101562 11.90625 11.101562 C 14.382812 11.101562 16.371094 9.109375 16.371094 6.636719 C 16.371094 4.164062 14.382812 2.171875 11.90625 2.171875 Z M 8.523438 12.53125 C 6.394531 13.125 4.960938 14.257812 4.960938 15.566406 L 4.960938 20.03125 C 4.960938 20.582031 5.402344 21.027344 5.953125 21.027344 L 17.859375 21.027344 C 18.410156 21.027344 18.851562 20.582031 18.851562 20.03125 L 18.851562 15.566406 C 18.851562 14.257812 17.421875 13.125 15.292969 12.53125 C 14.476562 13.480469 13.265625 14.078125 11.90625 14.078125 C 10.550781 14.078125 9.339844 13.480469 8.523438 12.53125 Z M 8.523438 12.53125 "/>
<path style=" stroke:none;fill-rule:nonzero;fill:rgb(100%,100%,100%);fill-opacity:0.235294;" d="M 11.90625 2.171875 C 9.433594 2.171875 7.441406 4.164062 7.441406 6.636719 C 7.441406 6.679688 7.441406 6.71875 7.445312 6.761719 C 7.507812 4.34375 9.476562 2.421875 11.90625 2.421875 C 14.339844 2.421875 16.304688 4.34375 16.371094 6.761719 C 16.371094 6.71875 16.371094 6.679688 16.371094 6.636719 C 16.371094 4.164062 14.382812 2.171875 11.90625 2.171875 Z M 8.523438 12.53125 C 6.394531 13.125 4.960938 14.257812 4.960938 15.566406 L 4.960938 15.816406 C 4.960938 14.507812 6.394531 13.371094 8.523438 12.78125 C 9.339844 13.730469 10.550781 14.328125 11.90625 14.328125 C 13.265625 14.328125 14.476562 13.730469 15.292969 12.78125 C 17.421875 13.371094 18.851562 14.507812 18.851562 15.816406 L 18.851562 15.566406 C 18.851562 14.257812 17.421875 13.125 15.292969 12.53125 C 14.476562 13.480469 13.265625 14.078125 11.90625 14.078125 C 10.550781 14.078125 9.339844 13.480469 8.523438 12.53125 Z M 8.523438 12.53125 "/>
<path style=" stroke:none;fill-rule:nonzero;fill:rgb(0%,0%,0%);fill-opacity:0.235294;" d="M 7.441406 6.535156 C 7.441406 6.566406 7.441406 6.601562 7.441406 6.636719 C 7.441406 9.109375 9.433594 11.101562 11.90625 11.101562 C 14.382812 11.101562 16.371094 9.109375 16.371094 6.636719 C 16.371094 6.601562 16.371094 6.566406 16.371094 6.535156 C 16.316406 8.957031 14.347656 10.894531 11.90625 10.894531 C 9.46875 10.894531 7.5 8.957031 7.441406 6.535156 Z M 4.960938 19.824219 L 4.960938 20.03125 C 4.960938 20.582031 5.402344 21.027344 5.953125 21.027344 L 17.859375 21.027344 C 18.410156 21.027344 18.851562 20.582031 18.851562 20.03125 L 18.851562 19.824219 C 18.851562 20.375 18.410156 20.816406 17.859375 20.816406 L 5.953125 20.816406 C 5.402344 20.816406 4.960938 20.375 4.960938 19.824219 Z M 4.960938 19.824219 "/>
<path style=" stroke:none;fill-rule:nonzero;fill:rgb(12.941177%,12.941177%,12.941177%);fill-opacity:1;" d="M 11.90625 2.097656 C 9.394531 2.097656 7.367188 4.121094 7.367188 6.636719 C 7.367188 9.152344 9.394531 11.179688 11.90625 11.179688 C 14.421875 11.179688 16.449219 9.152344 16.449219 6.636719 C 16.449219 4.121094 14.421875 2.097656 11.90625 2.097656 Z M 11.90625 2.25 C 14.339844 2.25 16.296875 4.203125 16.296875 6.636719 C 16.296875 9.070312 14.339844 11.027344 11.90625 11.027344 C 9.472656 11.027344 7.519531 9.070312 7.519531 6.636719 C 7.519531 4.203125 9.472656 2.25 11.90625 2.25 Z M 15.289062 12.457031 C 15.269531 12.457031 15.25 12.464844 15.234375 12.484375 C 14.429688 13.414062 13.242188 14.003906 11.90625 14.003906 C 10.574219 14.003906 9.382812 13.414062 8.578125 12.484375 C 8.558594 12.460938 8.53125 12.449219 8.5 12.457031 C 7.429688 12.757812 6.53125 13.191406 5.894531 13.722656 C 5.257812 14.253906 4.886719 14.886719 4.886719 15.566406 L 4.886719 20.03125 C 4.886719 20.625 5.363281 21.101562 5.953125 21.101562 L 17.859375 21.101562 C 18.453125 21.101562 18.929688 20.625 18.929688 20.03125 L 18.929688 15.566406 C 18.929688 14.886719 18.554688 14.253906 17.917969 13.722656 C 17.285156 13.191406 16.382812 12.757812 15.3125 12.457031 C 15.304688 12.457031 15.296875 12.457031 15.289062 12.457031 Z M 8.496094 12.617188 C 9.328125 13.5625 10.546875 14.15625 11.90625 14.15625 C 13.269531 14.15625 14.484375 13.5625 15.316406 12.617188 C 16.351562 12.914062 17.21875 13.335938 17.820312 13.839844 C 18.433594 14.351562 18.777344 14.941406 18.777344 15.566406 L 18.777344 20.03125 C 18.777344 20.542969 18.371094 20.949219 17.859375 20.949219 L 5.953125 20.949219 C 5.445312 20.949219 5.039062 20.542969 5.039062 20.03125 L 5.039062 15.566406 C 5.039062 14.941406 5.378906 14.351562 5.992188 13.839844 C 6.597656 13.335938 7.460938 12.914062 8.496094 12.617188 Z M 8.496094 12.617188 "/>
</g>
</svg>

<svg xmlns="http://www.w3.org/2000/svg" width="32" height="32" viewBox="0 0 24 24"><defs><linearGradient id="a" gradientUnits="userSpaceOnUse" x1="254" y1="233.5" x2="254" y2="254.667" gradientTransform="matrix(.04688 0 0 .04688 0 10.08)"><stop offset="0" stop-opacity=".275"/><stop offset="1" stop-opacity="0"/></linearGradient><radialGradient id="b" gradientUnits="userSpaceOnUse" cx="450.909" cy="189.579" fx="450.909" fy="189.579" r="21.167" gradientTransform="matrix(0 -.0586 -.10548 0 36.617 47.696)"><stop offset="0" stop-opacity=".314"/><stop offset=".222" stop-opacity=".275"/><stop offset="1" stop-opacity="0"/></radialGradient><radialGradient id="c" gradientUnits="userSpaceOnUse" cx="450.909" cy="189.579" fx="450.909" fy="189.579" r="21.167" gradientTransform="matrix(0 .0586 .10548 0 -13.299 -5.646)"><stop offset="0" stop-opacity=".314"/><stop offset=".222" stop-opacity=".275"/><stop offset="1" stop-opacity="0"/></radialGradient><radialGradient id="d" gradientUnits="userSpaceOnUse" cx="450.909" cy="189.579" fx="450.909" fy="189.579" r="21.167" gradientTransform="matrix(0 -.0586 .10548 0 -13.299 47.696)"><stop offset="0" stop-opacity=".314"/><stop offset=".222" stop-opacity=".275"/><stop offset="1" stop-opacity="0"/></radialGradient><radialGradient id="e" gradientUnits="userSpaceOnUse" cx="450.909" cy="189.579" fx="450.909" fy="189.579" r="21.167" gradientTransform="matrix(0 .0586 -.10548 0 36.617 -5.646)"><stop offset="0" stop-opacity=".314"/><stop offset=".222" stop-opacity=".275"/><stop offset="1" stop-opacity="0"/></radialGradient><linearGradient id="f" gradientUnits="userSpaceOnUse" x1="960" y1="1695.118" x2="960" y2="175.118" gradientTransform="scale(.0124)"><stop offset="0" stop-color="#26c6da"/><stop offset="1" stop-color="#4dd0e1"/></linearGradient></defs><path d="M6.45 21.027h10.417v.993H6.45zm0 0" fill="url(#a)"/><path d="M16.867 21.027h1.985v-.996h-1.985zm0 0" fill="url(#b)"/><path d="M6.45 21.027H4.464v.993h1.984zm0 0" fill="url(#c)"/><path d="M6.45 21.027H4.464v-.996h1.984zm0 0" fill="url(#d)"/><path d="M16.867 21.027h1.985v.993h-1.985zm0 0" fill="url(#e)"/><path d="M11.906 2.172a4.456 4.456 0 0 0-4.465 4.465 4.456 4.456 0 0 0 4.465 4.465 4.454 4.454 0 0 0 4.465-4.465 4.454 4.454 0 0 0-4.465-4.465zm-3.383 10.36c-2.128.593-3.562 1.726-3.562 3.034v4.465c0 .551.441.996.992.996H17.86c.551 0 .993-.445.993-.996v-4.465c0-1.308-1.43-2.441-3.559-3.035a4.446 4.446 0 0 1-3.387 1.547 4.444 4.444 0 0 1-3.383-1.547zm0 0" fill="url(#f)"/><path d="M11.906 2.172a4.456 4.456 0 0 0-4.465 4.465c0 .043 0 .082.004.125a4.45 4.45 0 0 1 4.461-4.34 4.454 4.454 0 0 1 4.465 4.34v-.125a4.454 4.454 0 0 0-4.465-4.465zm-3.383 10.36c-2.128.593-3.562 1.726-3.562 3.034v.25c0-1.308 1.434-2.445 3.562-3.035a4.444 4.444 0 0 0 3.383 1.547c1.36 0 2.57-.598 3.387-1.547 2.129.59 3.559 1.727 3.559 3.035v-.25c0-1.308-1.43-2.441-3.559-3.035a4.446 4.446 0 0 1-3.387 1.547 4.444 4.444 0 0 1-3.383-1.547zm0 0" fill="#fff" fill-opacity=".235"/><path d="M7.441 6.535v.102a4.456 4.456 0 0 0 4.465 4.465 4.454 4.454 0 0 0 4.465-4.465v-.102a4.455 4.455 0 0 1-4.465 4.36 4.46 4.46 0 0 1-4.465-4.36zm-2.48 13.29v.206c0 .551.441.996.992.996H17.86c.551 0 .993-.445.993-.996v-.207c0 .551-.442.992-.993.992H5.953a.989.989 0 0 1-.992-.992zm0 0" fill-opacity=".235"/><path d="M11.906 2.098a4.53 4.53 0 0 0-4.539 4.539 4.534 4.534 0 0 0 4.54 4.543 4.535 4.535 0 0 0 4.542-4.543 4.531 4.531 0 0 0-4.543-4.54zm0 .152a4.376 4.376 0 0 1 4.39 4.387 4.38 4.38 0 0 1-4.39 4.39 4.376 4.376 0 0 1-4.386-4.39 4.373 4.373 0 0 1 4.386-4.387zm3.383 10.207c-.02 0-.039.008-.055.027a4.383 4.383 0 0 1-3.328 1.52 4.389 4.389 0 0 1-3.328-1.52.075.075 0 0 0-.078-.027c-1.07.3-1.969.734-2.605 1.266-.637.53-1.008 1.164-1.008 1.843v4.465c0 .594.476 1.07 1.066 1.07H17.86c.594 0 1.07-.476 1.07-1.07v-4.465c0-.68-.374-1.312-1.011-1.843-.633-.532-1.535-.965-2.605-1.266h-.024zm-6.793.16a4.527 4.527 0 0 0 3.41 1.54 4.52 4.52 0 0 0 3.41-1.54c1.036.297 1.903.719 2.504 1.223.614.512.957 1.101.957 1.726v4.465a.912.912 0 0 1-.918.918H5.953a.911.911 0 0 1-.914-.918v-4.465c0-.625.34-1.214.953-1.726.606-.504 1.469-.926 2.504-1.223zm0 0" fill="#212121"/></svg>
